public/custom-cloud.svg

<svg width="241" height="290" viewBox="0 0 241 290" fill="none" xmlns="http://www.w3.org/2000/svg">
<mask id="mask0_9_80875" style="mask-type:luminance" maskUnits="userSpaceOnUse" x="0" y="0" width="241" height="290">
<path d="M241 0H0V290H241V0Z" fill="white"/>
</mask>
<g mask="url(#mask0_9_80875)">
<path d="M239.999 168.162H189.769L133.856 134.296C126.656 129.935 114.077 130.481 105.761 135.522L51.8612 168.163H1.66117V342.198H1.6782C1.4712 345.148 3.0432 347.998 6.5012 350.092L107.78 411.44C114.98 415.8 127.56 415.255 135.88 410.214L233.122 351.314C237.439 348.7 239.74 345.388 239.964 342.196H240.001L239.999 168.162Z" fill="url(#paint0_linear_9_80875)"/>
<path d="M236.965 189.845L129.109 252.516C126.851 253.856 124.273 254.564 121.648 254.564C119.022 254.564 116.444 253.856 114.187 252.516L4.68666 188.906C3.7338 188.301 2.95416 187.46 2.42409 186.463C1.89402 185.467 1.63162 184.351 1.66262 183.223V150.297L113.114 103.297C115.279 102.305 117.629 101.779 120.01 101.751C122.392 101.724 124.753 102.196 126.941 103.137L239.986 151.237V184.174C240.014 185.299 239.751 186.413 239.221 187.407C238.692 188.4 237.915 189.24 236.965 189.845Z" fill="#D9DDE8"/>
<path d="M238.8 152.959L128.837 216.866C126.589 218.201 124.024 218.905 121.41 218.905C118.796 218.905 116.231 218.201 113.983 216.866L2.85406 152.3C2.32384 151.949 1.93555 151.42 1.75848 150.809C1.58141 150.197 1.62699 149.543 1.88702 148.962C2.07918 148.493 2.41853 148.098 2.85406 147.837L112.847 83.9204C115.088 82.5917 117.645 81.8906 120.25 81.8906C122.855 81.8906 125.411 82.5917 127.652 83.9204L238.803 148.5C239.333 148.855 239.72 149.385 239.895 149.998C240.071 150.611 240.023 151.266 239.761 151.846C239.569 152.31 239.233 152.7 238.803 152.959H238.8Z" fill="#F2F5FC"/>
<path d="M211.933 154.697L132.703 200.75C129.998 202.356 126.911 203.203 123.766 203.203C120.621 203.203 117.534 202.356 114.83 200.75L29.7146 151.294C29.0975 150.884 28.6458 150.269 28.4398 149.557C28.2339 148.845 28.2869 148.084 28.5896 147.407C28.8135 146.861 29.2081 146.401 29.7146 146.097L110.322 99.2493C112.61 97.892 115.221 97.1758 117.881 97.1758C120.541 97.1758 123.152 97.892 125.44 99.2493L211.94 149.504C212.556 149.916 213.008 150.533 213.213 151.246C213.418 151.958 213.364 152.721 213.061 153.397C212.836 153.94 212.443 154.395 211.94 154.697H211.933Z" fill="#3A456E"/>
<path d="M211.935 154.696L203.849 159.404L125.444 113.847C123.156 112.489 120.544 111.773 117.884 111.773C115.224 111.773 112.612 112.489 110.325 113.847L37.8055 155.992L29.7145 151.292C29.0975 150.882 28.6459 150.267 28.4399 149.555C28.2339 148.844 28.2869 148.082 28.5895 147.406C28.8132 146.859 29.2079 146.4 29.7145 146.096L110.325 99.2462C112.613 97.8884 115.225 97.1719 117.885 97.1719C120.545 97.1719 123.157 97.8884 125.445 99.2462L211.945 149.502C212.559 149.918 213.006 150.537 213.208 151.251C213.409 151.965 213.351 152.727 213.044 153.402C212.82 153.938 212.431 154.388 211.934 154.688L211.935 154.696Z" fill="#E0E3ED"/>
<path d="M223.043 180.699C223.043 183.279 224.843 184.322 227.063 183.034C228.235 182.265 229.21 181.23 229.908 180.014C230.606 178.798 231.008 177.434 231.081 176.034C231.081 173.454 229.281 172.412 227.063 173.701C225.89 174.47 224.915 175.504 224.216 176.721C223.518 177.937 223.116 179.3 223.043 180.701V180.699Z" fill="#FFE06A"/>
<path d="M226.032 181.832C227.205 181.063 228.18 180.028 228.879 178.812C229.578 177.596 229.98 176.233 230.053 174.832C230.059 174.333 229.97 173.837 229.792 173.371C230.238 173.647 230.596 174.043 230.826 174.514C231.056 174.985 231.148 175.512 231.091 176.033C231.018 177.433 230.616 178.797 229.918 180.013C229.22 181.229 228.246 182.264 227.073 183.033C225.341 184.04 223.883 183.615 223.316 182.162C223.761 182.34 224.244 182.403 224.719 182.346C225.195 182.288 225.648 182.111 226.037 181.832H226.032Z" fill="#FCFCFC"/>
<path d="M209.574 188.315C209.574 190.895 211.374 191.941 213.592 190.651C214.763 189.88 215.737 188.845 216.435 187.629C217.133 186.413 217.536 185.05 217.61 183.651C217.61 181.071 215.81 180.025 213.592 181.314C212.419 182.083 211.444 183.117 210.746 184.334C210.048 185.55 209.647 186.914 209.574 188.315Z" fill="url(#paint1_linear_9_80875)"/>
<path d="M212.565 189.449C213.737 188.679 214.712 187.643 215.41 186.426C216.108 185.208 216.51 183.844 216.583 182.442C216.589 181.943 216.501 181.447 216.323 180.98C216.768 181.258 217.125 181.655 217.354 182.127C217.583 182.599 217.674 183.125 217.616 183.646C217.541 185.046 217.139 186.409 216.441 187.625C215.743 188.841 214.769 189.876 213.598 190.646C211.869 191.646 210.407 191.222 209.84 189.771C210.285 189.95 210.767 190.015 211.243 189.958C211.72 189.902 212.174 189.727 212.565 189.449Z" fill="white"/>
<path d="M60.1186 154.302L121.725 190.253C122.768 190.875 123.96 191.203 125.175 191.203C126.389 191.203 127.581 190.875 128.625 190.253L188.193 155.453C188.634 155.172 188.995 154.782 189.24 154.32C189.485 153.858 189.607 153.34 189.593 152.817V127.327L126.326 98.6551C125.325 98.1948 124.239 97.9504 123.137 97.938C122.036 97.9256 120.944 98.1454 119.934 98.5831L58.7277 126.183V151.671C58.7137 152.192 58.8343 152.708 59.078 153.169C59.3217 153.63 59.6801 154.02 60.1186 154.302Z" fill="url(#paint2_linear_9_80875)"/>
<path d="M60.1188 151.869L121.725 187.82C122.768 188.441 123.96 188.77 125.175 188.77C126.389 188.77 127.581 188.441 128.625 187.82L188.193 153.02C188.634 152.739 188.995 152.348 189.241 151.886C189.486 151.423 189.607 150.906 189.593 150.383V124.893L126.326 96.2205C125.325 95.761 124.239 95.517 123.138 95.5044C122.036 95.4918 120.945 95.711 119.934 96.1475L58.7278 123.742V149.23C58.7127 149.752 58.8329 150.269 59.0766 150.732C59.3203 151.194 59.6793 151.586 60.1188 151.869Z" fill="url(#paint3_linear_9_80875)"/>
<path d="M184.639 124.704L124.18 88.7227L63.3375 124.786L58.7266 122.046V127.517L118.407 162.959C120.051 163.956 121.937 164.483 123.861 164.483C125.784 164.483 127.67 163.956 129.315 162.959L189.248 127.444V121.973L184.639 124.704ZM124.348 153.024L81.4376 127.603L124.352 102.454L167.217 127.854L124.348 153.024Z" fill="url(#paint4_linear_9_80875)"/>
<path d="M124.177 83.25L58.7227 122.038L118.404 157.479C120.048 158.476 121.934 159.004 123.858 159.004C125.781 159.004 127.667 158.476 129.312 157.479L189.245 121.964L124.177 83.25Z" fill="url(#paint5_linear_9_80875)"/>
<path opacity="0.23" d="M122.083 13.2475L154.295 33.0745C157.395 34.9835 159.895 39.7375 159.825 43.6255L158.576 119.425C158.509 123.311 155.912 124.932 152.807 123.026L120.62 103.209C117.52 101.299 115.026 96.5445 115.091 92.6575L116.318 16.8455C116.386 12.9595 118.986 11.3365 122.083 13.2475Z" fill="url(#paint6_linear_9_80875)"/>
<path opacity="0.53" d="M107.445 25.2852L139.657 45.1122C142.757 47.0212 145.25 51.7752 145.185 55.6632L143.937 131.463C143.87 135.349 141.272 136.97 138.167 135.063L105.977 115.249C102.877 113.341 100.383 108.584 100.446 104.698L101.695 28.8981C101.743 24.9951 104.334 23.4042 107.445 25.2852Z" fill="url(#paint7_linear_9_80875)"/>
<path d="M91.5632 38.1375L123.269 57.2524C126.369 59.1604 128.869 63.9155 128.799 67.8035L129.035 142.003C128.968 145.889 126.371 147.509 123.266 145.603L91.3322 127.287C88.2322 125.379 85.7322 120.622 85.8022 116.736V41.7704C85.8702 37.8884 88.4442 36.2555 91.5632 38.1375Z" fill="url(#paint8_linear_9_80875)"/>
<path d="M105.274 76.7158C102.931 75.3288 101.307 77.4658 101.591 81.4968C101.9 85.5488 104.067 90.0148 106.411 91.4488C106.431 91.4488 106.433 91.4708 106.454 91.4698C108.774 92.8348 110.398 90.7207 110.114 86.6697C109.805 82.6177 107.638 78.1518 105.294 76.7178C105.294 76.7418 105.294 76.7178 105.274 76.7178" fill="#F2F5FC"/>
<path d="M106.721 93.8247C102.74 91.4627 99.9207 94.8007 100.421 101.309C100.45 101.658 100.613 101.983 100.876 102.216L114.212 110.294C114.446 110.424 114.603 110.247 114.567 109.894L114.516 109.225C114.502 108.994 114.478 108.763 114.444 108.535C114.02 105.019 112.865 101.632 111.053 98.5897C110.01 96.7101 108.548 95.0962 106.781 93.8737H106.761C106.761 93.8497 106.738 93.8517 106.717 93.8287" fill="#F2F5FC"/>
<path d="M114.928 86.3431C112.908 85.1511 111.477 86.9891 111.738 90.5161C111.999 94.0431 113.894 97.9281 115.919 99.1671C115.939 99.1671 115.94 99.1891 115.96 99.1891C117.98 100.38 119.392 98.5201 119.13 95.0141C118.868 91.4871 116.974 87.6041 114.95 86.3651C114.95 86.3411 114.95 86.3411 114.928 86.3431Z" fill="#F2F5FC"/>
<path d="M116.263 101.255C115.579 100.8 114.775 100.556 113.953 100.555C113.704 100.571 113.663 101.055 113.853 101.52C114.106 102.102 114.319 102.69 114.533 103.298C115.392 105.693 115.841 108.216 115.863 110.761C115.861 110.928 115.894 111.094 115.962 111.247C116.03 111.4 116.13 111.536 116.255 111.647L122.349 115.363C122.733 115.602 123.009 115.274 122.959 114.63C122.949 114.416 122.919 114.201 122.91 113.986C122.538 110.937 121.538 107.999 119.973 105.356C119.084 103.712 117.812 102.306 116.265 101.256" fill="#F2F5FC"/>
<path d="M96.2013 74.8133C94.1813 73.6213 92.7693 75.4833 93.0313 78.9873C93.2923 82.5163 95.1673 86.4003 97.2113 87.6153C97.2313 87.6153 97.2333 87.6373 97.2533 87.6363C99.2733 88.8283 100.685 86.9913 100.423 83.4623C100.161 79.9333 98.2673 76.0513 96.2423 74.8113C96.2423 74.8353 96.2233 74.8363 96.2013 74.8113" fill="#F2F5FC"/>
<path d="M97.1278 89.4878C96.6508 89.1224 96.0754 88.9081 95.4755 88.8725C94.8756 88.8368 94.2788 88.9815 93.7619 89.2878C92.5139 90.1038 91.7968 92.1399 91.9248 95.0059L91.9529 95.6268C91.9697 95.9276 92.0496 96.2215 92.1874 96.4894C92.3252 96.7573 92.5179 96.9933 92.7528 97.1819L98.8459 100.898C99.0599 101.029 99.1948 100.798 99.1378 100.449C98.7268 98.2874 98.8181 96.0604 99.4048 93.9399C99.5256 93.5648 99.6827 93.2024 99.8739 92.8578C99.9346 92.6591 99.9426 92.4479 99.8972 92.2451C99.8518 92.0423 99.7545 91.8548 99.6148 91.7009C98.9298 90.844 98.113 90.1014 97.1949 89.5008H97.1748C97.1696 89.4947 97.1632 89.4897 97.156 89.4861C97.1488 89.4825 97.1409 89.4804 97.1328 89.4799" fill="#F2F5FC"/>
<path d="M151.109 190.238L171.976 178.109L177.585 186.709L156.953 199.261" fill="#F2F5FC"/>
</g>
<defs>
<linearGradient id="paint0_linear_9_80875" x1="136.8" y1="449.762" x2="150.237" y2="115.092" gradientUnits="userSpaceOnUse">
<stop stop-color="white"/>
<stop offset="1" stop-color="#C8CEDE"/>
</linearGradient>
<linearGradient id="paint1_linear_9_80875" x1="-1026.2" y1="499.514" x2="-1026.2" y2="499.566" gradientUnits="userSpaceOnUse">
<stop stop-color="#5E98F7"/>
<stop offset="1" stop-color="#4670BA"/>
</linearGradient>
<linearGradient id="paint2_linear_9_80875" x1="-570.876" y1="454.865" x2="-570.876" y2="454.865" gradientUnits="userSpaceOnUse">
<stop stop-color="#5E98F7"/>
<stop offset="1" stop-color="#4670BA"/>
</linearGradient>
<linearGradient id="paint3_linear_9_80875" x1="-570.877" y1="454.857" x2="-570.877" y2="454.857" gradientUnits="userSpaceOnUse">
<stop offset="0.459" stop-color="#EBF0F5"/>
<stop offset="0.544" stop-color="#D3DAEB"/>
</linearGradient>
<linearGradient id="paint4_linear_9_80875" x1="-563.467" y1="432.825" x2="-563.467" y2="432.825" gradientUnits="userSpaceOnUse">
<stop stop-color="#5E98F7"/>
<stop offset="1" stop-color="#4670BA"/>
</linearGradient>
<linearGradient id="paint5_linear_9_80875" x1="-561.91" y1="433.612" x2="-561.91" y2="433.612" gradientUnits="userSpaceOnUse">
<stop stop-color="#AADFF7"/>
<stop offset="1" stop-color="#69A1E3"/>
</linearGradient>
<linearGradient id="paint6_linear_9_80875" x1="-562.268" y1="454.623" x2="-563.542" y2="454.696" gradientUnits="userSpaceOnUse">
<stop stop-color="#AADFF7"/>
<stop offset="1" stop-color="#69A1E3"/>
</linearGradient>
<linearGradient id="paint7_linear_9_80875" x1="-563.159" y1="454.484" x2="-562.263" y2="454.687" gradientUnits="userSpaceOnUse">
<stop stop-color="#AADFF7"/>
<stop offset="1" stop-color="#69A1E3"/>
</linearGradient>
<linearGradient id="paint8_linear_9_80875" x1="-563.537" y1="454.572" x2="-562.783" y2="454.624" gradientUnits="userSpaceOnUse">
<stop stop-color="#5E98F7"/>
<stop offset="1" stop-color="#4670BA" stop-opacity="0.69"/>
</linearGradient>
</defs>
</svg>

<svg xmlns="http://www.w3.org/2000/svg" width="241" height="290" fill="none" viewBox="0 0 241 290"><mask id="a" width="241" height="290" x="0" y="0" maskUnits="userSpaceOnUse" style="mask-type:luminance"><path fill="#fff" d="M241 0H0v290h241z"/></mask><g mask="url(#a)"><path fill="url(#b)" d="M239.999 168.162h-50.23l-55.913-33.866c-7.2-4.361-19.779-3.815-28.095 1.226l-53.9 32.641h-50.2v174.035h.017c-.207 2.95 1.365 5.8 4.823 7.894L107.78 411.44c7.2 4.36 19.78 3.815 28.1-1.226l97.242-58.9c4.317-2.614 6.618-5.926 6.842-9.118h.037z"/><path fill="#d9dde8" d="m236.965 189.845-107.856 62.671a14.62 14.62 0 0 1-14.922 0l-109.5-63.61a6.52 6.52 0 0 1-3.024-5.683v-32.926l111.451-47a17.04 17.04 0 0 1 13.827-.16l113.045 48.1v32.937a6.53 6.53 0 0 1-3.021 5.671"/><path fill="#f2f5fc" d="m238.8 152.959-109.963 63.907a14.54 14.54 0 0 1-14.854 0L2.854 152.3a2.684 2.684 0 0 1-.967-3.338c.192-.469.532-.864.967-1.125L112.847 83.92a14.52 14.52 0 0 1 14.805 0l111.151 64.58a2.69 2.69 0 0 1 .958 3.346 2.35 2.35 0 0 1-.958 1.113z"/><path fill="#3a456e" d="m211.933 154.697-79.23 46.053a17.5 17.5 0 0 1-17.873 0l-85.115-49.456a3.13 3.13 0 0 1-1.125-3.887 2.74 2.74 0 0 1 1.125-1.31l80.607-46.848a14.82 14.82 0 0 1 15.118 0l86.5 50.255a3.14 3.14 0 0 1 1.121 3.893 2.74 2.74 0 0 1-1.121 1.3z"/><path fill="#e0e3ed" d="m211.935 154.696-8.086 4.708-78.405-45.557a14.81 14.81 0 0 0-15.119 0l-72.52 42.145-8.09-4.7a3.13 3.13 0 0 1-1.125-3.886 2.74 2.74 0 0 1 1.125-1.31l80.61-46.85a14.82 14.82 0 0 1 15.12 0l86.5 50.256a3.14 3.14 0 0 1 1.099 3.9 2.73 2.73 0 0 1-1.11 1.286z"/><path fill="#ffe06a" d="M223.043 180.699c0 2.58 1.8 3.623 4.02 2.335a8.93 8.93 0 0 0 4.018-7c0-2.58-1.8-3.622-4.018-2.333a8.93 8.93 0 0 0-4.02 7z"/><path fill="#fcfcfc" d="M226.032 181.832a8.94 8.94 0 0 0 4.021-7 4 4 0 0 0-.261-1.461 2.78 2.78 0 0 1 1.299 2.662 8.93 8.93 0 0 1-4.018 7c-1.732 1.007-3.19.582-3.757-.871a2.853 2.853 0 0 0 2.721-.33z"/><path fill="url(#c)" d="M209.574 188.315c0 2.58 1.8 3.626 4.018 2.336a8.96 8.96 0 0 0 4.018-7c0-2.58-1.8-3.626-4.018-2.337a8.91 8.91 0 0 0-4.018 7.001"/><path fill="#fff" d="M212.565 189.449a8.94 8.94 0 0 0 4.018-7.007 4 4 0 0 0-.26-1.462 2.79 2.79 0 0 1 1.293 2.666 8.95 8.95 0 0 1-4.018 7c-1.729 1-3.191.576-3.758-.875a2.854 2.854 0 0 0 2.725-.322"/><path fill="url(#d)" d="m60.119 154.302 61.606 35.951a6.74 6.74 0 0 0 6.9 0l59.568-34.8a3.02 3.02 0 0 0 1.4-2.636v-25.49l-63.267-28.672a7.84 7.84 0 0 0-6.392-.072l-61.206 27.6v25.488a3.03 3.03 0 0 0 1.39 2.631"/><path fill="url(#e)" d="m60.119 151.869 61.606 35.951a6.75 6.75 0 0 0 6.9 0l59.568-34.8a3.04 3.04 0 0 0 1.048-1.134c.245-.463.366-.98.352-1.503v-25.49l-63.267-28.672a7.86 7.86 0 0 0-6.392-.074l-61.206 27.595v25.488a3.04 3.04 0 0 0 1.39 2.639"/><path fill="url(#f)" d="M184.639 124.704 124.18 88.723l-60.843 36.063-4.61-2.74v5.471l59.68 35.442a10.52 10.52 0 0 0 10.908 0l59.933-35.515v-5.471zm-60.291 28.32-42.91-25.421 42.914-25.149 42.865 25.4z"/><path fill="url(#g)" d="m124.177 83.25-65.454 38.788 59.681 35.441a10.52 10.52 0 0 0 10.908 0l59.933-35.515z"/><path fill="url(#h)" d="m122.083 13.248 32.212 19.827c3.1 1.908 5.6 6.662 5.53 10.55l-1.249 75.8c-.067 3.886-2.664 5.507-5.769 3.601l-32.187-19.817c-3.1-1.91-5.594-6.665-5.529-10.552l1.227-75.811c.068-3.886 2.668-5.51 5.765-3.598" opacity=".23"/><path fill="url(#i)" d="m107.445 25.285 32.212 19.827c3.1 1.91 5.593 6.663 5.528 10.551l-1.248 75.8c-.067 3.886-2.665 5.507-5.77 3.6l-32.19-19.814c-3.1-1.908-5.594-6.665-5.531-10.551l1.249-75.8c.048-3.903 2.639-5.494 5.75-3.613" opacity=".53"/><path fill="url(#j)" d="m91.563 38.138 31.706 19.114c3.1 1.908 5.6 6.663 5.53 10.551l.236 74.2c-.067 3.886-2.664 5.506-5.769 3.6l-31.934-18.316c-3.1-1.908-5.6-6.665-5.53-10.551V41.77c.068-3.882 2.642-5.515 5.761-3.633"/><path fill="#f2f5fc" d="M105.274 76.716c-2.343-1.387-3.967.75-3.683 4.78.309 4.053 2.476 8.519 4.82 9.953.02 0 .022.022.043.02 2.32 1.366 3.944-.748 3.66-4.8-.309-4.051-2.476-8.517-4.82-9.951 0 .024 0 0-.02 0M106.721 93.825c-3.981-2.362-6.8.976-6.3 7.484.029.349.192.674.455.907l13.336 8.078c.234.13.391-.047.355-.4l-.051-.669a8 8 0 0 0-.072-.69 25.4 25.4 0 0 0-3.391-9.945 14 14 0 0 0-4.272-4.716h-.02c0-.024-.023-.022-.044-.045M114.928 86.343c-2.02-1.192-3.451.646-3.19 4.173s2.156 7.412 4.181 8.651c.02 0 .021.022.041.022 2.02 1.191 3.432-.669 3.17-4.175-.262-3.527-2.156-7.41-4.18-8.649 0-.024 0-.024-.022-.022M116.263 101.255a4.2 4.2 0 0 0-2.31-.7c-.249.016-.29.5-.1.965.253.582.466 1.17.68 1.778a22.7 22.7 0 0 1 1.33 7.463 1.16 1.16 0 0 0 .392.886l6.094 3.716c.384.239.66-.089.61-.733-.01-.214-.04-.429-.049-.644a22.2 22.2 0 0 0-2.937-8.63 11.66 11.66 0 0 0-3.708-4.1M96.201 74.813c-2.02-1.192-3.432.67-3.17 4.174.261 3.53 2.136 7.413 4.18 8.628.02 0 .022.022.042.021 2.02 1.192 3.432-.645 3.17-4.174s-2.156-7.41-4.18-8.65c0 .023-.02.024-.042 0M97.128 89.488a3.01 3.01 0 0 0-3.366-.2c-1.248.816-1.965 2.852-1.837 5.718l.028.62a2.15 2.15 0 0 0 .8 1.556l6.093 3.716c.214.131.349-.1.292-.449a14.35 14.35 0 0 1 .267-6.51c.12-.374.278-.737.469-1.081a1.2 1.2 0 0 0-.26-1.157 10.4 10.4 0 0 0-2.42-2.2h-.02a.06.06 0 0 0-.041-.021M151.109 190.238l20.867-12.129 5.609 8.6-20.632 12.552"/></g><defs><linearGradient id="b" x1="136.8" x2="150.237" y1="449.762" y2="115.092" gradientUnits="userSpaceOnUse"><stop stop-color="#fff"/><stop offset="1" stop-color="#c8cede"/></linearGradient><linearGradient id="c" x1="-1026.2" x2="-1026.2" y1="499.514" y2="499.566" gradientUnits="userSpaceOnUse"><stop stop-color="#5e98f7"/><stop offset="1" stop-color="#4670ba"/></linearGradient><linearGradient id="d" x1="-570.876" x2="-570.876" y1="454.865" y2="454.865" gradientUnits="userSpaceOnUse"><stop stop-color="#5e98f7"/><stop offset="1" stop-color="#4670ba"/></linearGradient><linearGradient id="e" x1="-570.877" x2="-570.877" y1="454.857" y2="454.857" gradientUnits="userSpaceOnUse"><stop offset=".459" stop-color="#ebf0f5"/><stop offset=".544" stop-color="#d3daeb"/></linearGradient><linearGradient id="f" x1="-563.467" x2="-563.467" y1="432.825" y2="432.825" gradientUnits="userSpaceOnUse"><stop stop-color="#5e98f7"/><stop offset="1" stop-color="#4670ba"/></linearGradient><linearGradient id="g" x1="-561.91" x2="-561.91" y1="433.612" y2="433.612" gradientUnits="userSpaceOnUse"><stop stop-color="#aadff7"/><stop offset="1" stop-color="#69a1e3"/></linearGradient><linearGradient id="h" x1="-562.268" x2="-563.542" y1="454.623" y2="454.696" gradientUnits="userSpaceOnUse"><stop stop-color="#aadff7"/><stop offset="1" stop-color="#69a1e3"/></linearGradient><linearGradient id="i" x1="-563.159" x2="-562.263" y1="454.484" y2="454.687" gradientUnits="userSpaceOnUse"><stop stop-color="#aadff7"/><stop offset="1" stop-color="#69a1e3"/></linearGradient><linearGradient id="j" x1="-563.537" x2="-562.783" y1="454.572" y2="454.624" gradientUnits="userSpaceOnUse"><stop stop-color="#5e98f7"/><stop offset="1" stop-color="#4670ba" stop-opacity=".69"/></linearGradient></defs></svg>
